X:15
T: PREISEND MIT VIEL SCHOENEN REDEN
N: B0014
O: Europa, Mitteleuropa, Deutschland
R: politisch, national, Vaterlands - Lied
M: 4/4
L: 1/8
K: C
G,G, | C2C2G,2G,2 | E,2G,E,C,2
CC | B,2C2D2E2 | DG^FED2
CC | B,3B,D3D | G,4z2
G,G, | F3DE3C | EDD2z2
G,G, | F3DE3C | EDD2z2
G,G, | C2C2D2D2 | G3EC2
CB, | A,FEDE2D2 | C4z2

@@@ Tune index: 1818
